X:2
T:2.
M:C
Q:"Allegro"
L:1/8
K:Gm
z8 | z!f!B,DB, (EC)D2 | D2z2z4 | zDFD (GE)F2 | F2z2z4 |
z4z2z!f!d | G2ze A2zD | (EC)D2D2z2 | z8 | z8 |
z4!f!F2zF | B,2zF (GE)F2 | F2z2z4 | z8 | !f!F2F2F2z2 |
